X:1
T:Title
L:1/8
Q:1/4=80
M:6/8
K:C
V:1 treble nm="Church Organ, Staff"
V:1
 G_Bc- c/ z/ dc- | cG_B- B2 B | GF_E- E/ z/ EF- | F_EG- G3/2 z/ z | G_Bc- c/ z/ dc- | cG_B- B2 B | %6
w: By~C.~L.~Naglor * * * * *||||||
 GF_E- E/ z/ EF- | FG_E- E2 E |] %8
w: ||

